X:1
T: MacLean's Favourite
C:
R:Reel
Q: 232
K:Em
M:4/4
L:1/8
gf|ed BA GA Bc|dG BG dG Be|ed BA GA BA|Be ed ef gf|
ed BA GA Bc|dG BG dG Be|ed BA GA BA|Be ed e2 ef|
|:de fg af df|ed ef ed Be|de fg af df|ed ef d2 d2|
de fg af df|fd ef ed Bf|g2 ge f2 fd|ef ed ef gf:|
ed BA GA Bc|dG BG dG Be|ed BA GA BA|Be ed ef gf|
ed BA GA Bc|dG BG dG Be|ed BA GA BA|Be ed e2||
